X:1
T:A demi mort
T:A demi mort
T:Jacques Clemens non papa
C:Jacques Clemens non papa
%%score [ 1 [ 2 3 ] 4 ]
L:1/8
Q:1/4=90
M:2/2
K:F
V:1 treble nm="Superius" snm="S"
V:2 treble-8 nm="Tenor 1" snm="T 1"
V:3 treble-8 nm="Tenor 2" snm="T 2"
V:4 bass nm="Bassus" snm="B"
V:1
 A4 F2 D2 | A6 F2 | G2 B2 A3 G/F/ | ED E2 D2 d2- | d2 c2 B2 A2- | AG G4 F2 | BA GF ED G2- | %7
w: A de- mi|mort par|ma- la- di- * *|||||
 G2 F2 G2 B2 | B2 B2 A4 | z2 A2 AB cA | B2 A4 G2 | A6 B2 | A2 G4 F2 | G4 z2 G2 | d2 d2 d2 d2 | %15
w: * * e, à|de- mi mort|par ma- * * *|la- di- *|||e, na-|vré je suis, las|
 c2 B2 A4 | G2 B2 A2 G2 | A2 B2 A3 G/F/ | G2 G2 F2 F2- | FG AB c2 d2- | d2 c2 d4 | z2 G2 B2 A2 | %22
w: pour mou- rir,|na- vré je suis,|las pour _ _ _|_ mou- rir, pour|_ _ _ _ _ _|* mou- rir,|na- vré je|
 F4 z2 G2 | c2 B2 AG ED | E4 D2 F2 | G2 F2 G2 c2- | c2 B2 A2 G2- | G2 F2 G2 E2 | D8 | z4 z2 A2 | %30
w: suis, las|pour mou- * * * *||* * rir, na-|* vré je suis,|_ las pour mou-|rir,|qu'en|
 ABcA B2 A2- | A2 G2 A4 | z2 A2 ABcA | B2 A4 G2 | A4 z2 A2 | ABcA B2 A2- | A2 G2 A2 d2- | %37
w: dic- tes vous ma doul- ce'a-|* my- e,|qu'en dic- tes vous ma|doul- ce'a- my-|e, qu'en|dic- tes vous ma doul- ce'a-|* my- e, ma-|
 d2 c2 B2 AG | A2 G2 z2 A2 | d2 d2 c3 A | B2 A4 G2 | A2 FG AF B2- | B2 A2 B3 A/G/ | F2 A2 A2 F2 | %44
w: _ doul- ce'a- my- *|* e, ne|me po- vez _|_ vous se-|cou- * * * * *||rir, na- vré je|
 G2 A2 B2 A2 | F2 A2 A2 A2 | G2 B2 A2 G2- | G2 F2 G4 | z2 A2 A2 F2 | G2 A2 B2 G2 | F4 z2 A2 | %51
w: suis, las pour mou-|rir, na- vré je|suis, las pour _|_ mou- rir,|na- vré je|suis, las pour mou-|rir, na-|
 A2 A2 G2 B2 |"^#" A2 G4 F2 | G4 G4 | G4 G4 | G8 |] %56
w: vré je suis, las|pour _ mou-|rir, à|de- mi|mort.|
V:2
 z8 | z4 d4 | B2 G2 d4- | d2 c2 d2 f2 | e4 d4- | d8- | d4 z4 | d4 B2 G2 | d2 d2 f2 e2- | e2 d4 c2 | %10
w: |A|de- mi mort|_ par ma- la-|di- e,|_||à de- mi|mort par ma- la-|* di- *|
 d2 d2 B2 G2 | c2 c2 d2 f2 | e2 c2 d4 | z2 d2 g2 g2 | g2 g2 f2 ed | ed g4 f2 | g2 d2 d2 e2 | %17
w: e, à de- mi|mort par ma- la-|di- * e,|na- vré je|suis, las pour _ _|_ _ _ _|mou- rir, na- vré|
 f2 g4 f2 | e2 d3 c A2 | B2 A4 G2 | A2 A2 B2 A2 | GA Bc d4 | z2 d2 e2 g2- | g2 f2 e2 d2- | %24
w: je suis, las|pour _ _ _|_ _ mou-|rrir, na- vré je|suis, _ _ _ _|las pour _|_ _ _ _|
 d2 c2 d4 | z2 d2 e2 g2 | g3 f e2 c2 | d6 cB | A4 B4 | d2 de fd e2 | d2 c2 d2 f2- | f2 ed c2 c2 | %32
w: * mou- rir,|na- vré je-|suis, _ _ las|pour _ _|mou- rir,|qu'en dic- tes vous ma doul-|ce'a- my- * *|* * * e, ma|
 d2 f2 e4 | d4 d2 de | fd e4 d2- | d2 c2 d4- | d4 z2 d2 | g2 g2 f4- | f2 e2 d2 f2- | f2 ed f2 e2 | %40
w: doul- ce'a- my-|e, qu'en dic- tes|vous ma doul- c'a-|* my- e,|_ ne|me po- vez|_ vous se- cou-||
 f4 z2 d2 |"^b" f3 f f2 e2 | f2 f2 d4 | z2 e2 f2 d2 | d2 f2 f2 f2 | c2 f2 e2 f2 | dc de f2 c2 | %47
w: rir, ne|me po- vez vous|se- cou- rir,|na- vré je|suis, las pour mou-|rrir, na- vré je|suis _ las _ pour mou-|
 d8 | z2 e2 f2 d2 | d2 f2 f2 e2 | d2 f2 f2 f2 | e2 f2 dc de | f2 c2 d4 | z4 d4 | _e4 e4 | d8 |] %56
w: rir,|na- vré je|suis, las pour mou-|rir, na- vré je|suis, las pour _ _ _|_ mou- rir,|à|de- mi|mort.|
V:3
 z8 | z8 | z8 | A4 F2 D2 | A4 z2 F2 | G2 B2 A4 | G2 d2 cB AG | A4 G2 d2 | B2 G2 c2 c2 | d2 f2 e4 | %10
w: |||A de- mi|mort par|ma- la di-||* e, à|de- mi mort par|ma- la- di-|
 d4 z2 d2 | f2 e2 d4 | cB AG A4 | G2 B2 B2 G2 | B4 A4 | z2 G2 d2 d2 | d4 z2 G2 | d2 d2 d2 d2 | %18
w: e, par|ma- la di-||e, va- vré je|suis, las,|na- vré je|suis, na|vré je suis, las|
 c2 B2 AG FE | F4 E2 D2 | E4 D4 | z4 z2 A2 | B2 A2 GA Bc | d2 d2 G2 B2 | A8 | z4 c4 | %26
w: pour _ _ _ _ _|_ _ _|mou- rir,|las|pour _ _ _ _ _|_ _ _ mou-|rir,|na-|
 _e2 d2 cB AG | A2 B3 A G2- | G2 F2 G3 A | Bc d3 B c2 | A4 z4 | d2 de fd e2- | ed d4 c2 | %33
w: vré je suis _ _ _|_ pour _ _|_ mou- rir, _|_ _ _ _ _||qu'en dic- tes vous ma doul-|* * * ce'a-|
 dc BA B4 | A3 G F2 ED | E2 A2 G2 F2 | B4 A4 | z2 G2 d2 d2 | c3 A B2 A2- | A2 G2 A2 A2 | %40
w: my- * * * *|||* e,|ne me po-|vez vous se- cou-|* * rir, ne|
 d2 d2 c2 B2 | A2 d2 c2 B2 | c4 B2 d2 | d2 c2 d2 A2 | B2 c2 d2 cB | A2 d2 c2 d2 | BA Bc d2 G2 | %47
w: me po- vez vous|se- cou- * *|* rir, na-|vré je suis, las|pour mou- * * *|rir, na- vré je|suis _ las- * pour _|
 A4 G2 d2 | d2 c2 d2 A2 | B2 c2 d2 cB | A2 d2 d2 d2 | c2 c2 B3 c | d2 G2 A4 | G4 B4 | c4 c4 | B8 |] %56
w: mou- rir, na-|vré je suis, las|pour mou- * * *|rir, na- vré je|suis, las pour _|_ _ mou-|rir, à|de- mi|mort.|
V:4
 z8 | z8 | z8 | z8 | z4 D,4 | B,,2 G,,2 D,4 | z2 B,,2 C,2 E,2 | D,4 G,4 | z4 A,4 | F,2 D,2 A,4 | %10
w: ||||A|de- mi mort|par ma- la-|di- e,|à|de- mi mort|
 z2 F,2 G,2 B,2 | A,4 D,2 B,,2 | C,2 E,2 D,4 | G,,3 A,, B,,2 C,2 | B,,2 G,,2 D,4 | z4 D,4 | %16
w: par ma- la-|di- e, par|ma- la- di-||* * e,|na-|
 G,2 G,2 F,2 E,2 | D,2 G,,2 D,4 | z2 G,,2 D,2 D,2 | D,2 D,2 C,2 B,,2 | A,,4 z2 D,2 | E,2 G,4 F,E, | %22
w: vré je suis, las|pour mou- rir,|na- vré je|suis, las pour mou-|rir, las|pour _ _ _|
 D,2 F,2 E,4 | D,4 z4 | z4 D,4 | E,2 D,2 C,D, E,F, | G,4 C,2 E,2 | D,4 B,,2 C,2 | D,4 G,,2 G,2 | %29
w: _ _ mou-|rir,|las|pour _ _ _ _ _|_ _ _||mou- rir, qu'en|
 G,A,B,G, A,3 G, | F,2 A,2 G,2 F,2 | B,4 A,3 G, | F,2 D,2 A,4 | z2 D,2 G,2 G,2 | F,2 C,2 D,2 D,2 | %35
w: dic- tes vous ma doul- *|* * * ce'a-|my- * *|* * e,|ne me po-|vez vous se- cou-|
 A,,4 z2 D,2 | G,2 G,2 F,3 D, | E,2 E,2 D,2 D,2 | F,2 C,2 D,C, B,,A,, | B,,2 B,,2 A,,4 | %40
w: rir, ne|me po- vez vous|se- cou- rir, ne|me po- vez _ vous _|se- cou- rir,|
 z2 D,2 F,2 G,2 | D,3 E, F,2 G,2 | F,4 z2 G,2 | B,2 A,2 D,2 D,2 | G,2 F,2 B,,2 F,2 | %45
w: ne me po-|vez vous se- cou-|rir, na-|vré je suis, na-|vré je suis pour-|
 F,E, F,G, A,2 F,2 | G,3 F, D,2 E,2 |"^b" D,4 z2 G,2 | B,2 A,2 D,2 D,2 | G,2 F,2 B,,2 C,2 | %50
w: mou- * * * * *||rir, na-|vré je suis, las|pour mou- rir, las|
 D,C, D,E, F,E, F,G, | A,2 F,2 G,3 F, | D,2 E,2 D,4 | G,,4 G,4 | C,4 C,4 | G,8 |] %56
w: pour _ _ _ _ _ _ _|mou- * * *||rir, à|de- mi|mort.|

